!!!OTL: 31. Freylekhs
!!!Genre:	Freylekhs
!!!Mode:	Freygish
!!!Listening/dance:	listening
!!!:	*F:
!!!One_Mode:	no
**kern
*thru
*I"P1
*clefG2
*k[b-e-a-]
*F:
!LO:TX:a:i:t=F-major
=18:|!|:
*k[b-]
(8qdd/
(16ccLL)
16b-)
(8qcc/
(16b-)
16aJJ)
(8qb-/
(16aLL)
16g)
(8qa/
(16g)
16fJJ)
=19
(16fLL
16aJ
8ccJ)
16fLL
16aJ
8ccJ
=20
(8qdd/
(16ccLL)
16b-)
(8qcc/
(16b-)
16aJJ)
(8qb-/
(16aLL)
16g)
(8qa/
(16g)
16fJJ)
=21
8.ccL
16ccJk
4ff
=22
(16ccLL
16b-)
(16b-
16aJJ)
(16aLL
16g)
(16g
16fJJ)
=23
(16fLL
16aJ
8ccJ)
(16fLL
16aJ
8ccJ)
!!!End-Modulation
*F:
!LO:TX:a:i:t=F-major
=18:|!|:
*k[b-]
(8qdd/
(16ccLL)
16b-)
(8qcc/
(16b-)
16aJJ)
(8qb-/
(16aLL)
16g)
(8qa/
(16g)
16fJJ)
=19
(16fLL
16aJ
8ccJ)
16fLL
16aJ
8ccJ
=20
(8qdd/
(16ccLL)
16b-)
(8qcc/
(16b-)
16aJJ)
(8qb-/
(16aLL)
16g)
(8qa/
(16g)
16fJJ)
=21
8.ccL
16ccJk
4ff
=22
(16ccLL
16b-)
(16b-
16aJJ)
(16aLL
16g)
(16g
16fJJ)
=23
(16fLL
16aJ
8ccJ)
(16fLL
16aJ
8ccJ)
!!!End-Modulation
*-
